X: 54
T:Zwiefacher Tauberer
O:Germany
M:3/4
L:1/8
Q:1/4=180
K:G
  "G"D2G2G2       |G3 BAG           |\
  [M:2/4]"D"F3c   |[M:3/4]"G"BAG2z2 |
|:[M:3/4]"G"DDD2G2|G2 G3B           |\
  "D"AGF3A        |A2 A4            |
  Ace2d2          |[M:2/4]"D" d2 B2 |\
  "C"d2 c2        |"C"c2 A2         |
  "G"G3B          |[M:3/4]AFG2z2    :|\
|:[M:2/4]"D"zzDD  |[M:3/4]D2GBd2    |
  D2GBd2          |d6               |c4D2|\
  "C"D2GAc2       |D2GAc2           |\
  c6              |B6               |\
  "G"DDD2G2       |G2 G3B           |
  "D"AGF3A        |"C"A2 A4         |\
  Ace2d2          |[M:2/4]d2 B2     |\
  "C"d2 c2        |"C"c2 A2         |\
  "G"G3B          |[M:3/4]AFG2z2    :|
